X:1
T: Viksta Lasses e-mollpolska
S: Utlärd av Ole Hjort
Z: Karin Arén
M: 3/4
L: 1/8
K: Em
|:ve>g b2 e>g | u(f>e) (^d<f) B2 | v(e>f) (g/a/g/f/) g>a | v(a<b) b4 | 
ve>g b2 e>g | u(f>e) (^d<f) B2 | ve>(c B/c/B/A/) G>F | v(F<E) E4 :|: 
vE>(G B2) e>g | f>e ^d<f B>a | g>f e>b g>e | f<^d B4 | 
vE>(G B2) e>g | f>e ^d<f B>a | g>f e>b g>e |v(3(B^df) e4  :|

